assets/icons/traton/smartphone_inactive.svg

<svg xmlns="http://www.w3.org/2000/svg" width="32" height="32" viewBox="0 0 32 32" fill="none">
<path d="M7.98411 12.2217V28H23.7856L25.7885 30H5.98117V10.2217L7.98411 12.2217ZM28 26.5725L26.5839 27.9865L4 5.4358L5.41614 4.02174L28 26.5725ZM26.0105 21.8789L24.0076 19.8789V4H8.10538L6.10244 2H26.0105V21.8789ZM17.9988 8H13.9929V6H17.9988V8Z" fill="#001D21" />
</svg>

<svg xmlns="http://www.w3.org/2000/svg" fill="none" viewBox="0 0 32 32"><path fill="#001d21" d="M8 12.2V28h15.8l2 2H6V10.2zm20 14.4L26.6 28 4 5.4 5.4 4zm-2-4.7-2-2V4H8.1l-2-2h20zM18 8h-4V6h4z"/></svg>
